X: 333
Q: "Slowish"
M: 2/4
L: 1/16
K: G
V: 1
(Bc) |\
.d2(dc) .B2(BA) | .G2(GA) (BA).B.G | .c2(cB) .A2(AG) | F2FE (FE)D2 |\
|: B2 |\
[e2B2] e4 e2 | ^d2(d^c) (dcB2) | [e2B2] e4 g2 | {g}f2fe fefd |\
[g2B2] [g4B4] b2 | {b}a2ag agfa | gfeg fe^df | (efgf) !D.C.!e2 :|
V: 2 clef=bass middle=d
z2 |\
g2b2 B2d'2 | g2b2 d2D2 | g2b2 d'2d2 | g2d2 HG2 :|
|: z2 |\
e2e'2 e2e'2 | B2b2 B2b2 | e2e'2 e2e'2 | d2d'2 d2d'2 |\


